X:1
T:Eternal Father, Strong to Save
T:Eternal Father, Strong to Save
T:Music by John B. Dykes Tune: Melita
T:Words by William Whiting
T:Hymnary.org, Public Domain
T:Hymnary.org, Public Domain
C:John B. Dykes
Z:William Whiting
Z:Hymnary.org, Public Domain
%%score { ( 1 4 ) | ( 2 3 ) }
L:1/8
M:4/4
K:C
V:1 treble nm="Pipe Organ/Piano"
V:4 treble 
V:2 bass 
V:3 bass 
V:1
 C2 | [CE]3 [CE] [EG]2 [EG]2 | [FA]2 [FA]2 [EG]2 G2 | c2 d2 B2 G2 | %4
w: E-|ter- nal Fa- ther,|strong to save, Whose|arm hath bound the|
w: O|Christ, whose voice the|wa- ters heard, And|hushed their rag- ing|
w: O|Ho- ly Spir- it,|who didst brood Up-|on the wa- ters|
w: O|Trin- i- ty of|love and power, Our|peo- ple shield in|
 [DG]2 [D^F]2 !fermata![DG]2 [B,D]2 | [D=F]3 [DF] [CE]2 [CE]2 | [EG]3 [EG] [D^F]2 | [^FB]2 | %8
w: rest- less wave, Who|bidd'st the might- y|o- cean deep|Its|
w: at Thy word, Who|walk- edst on the|foam- ing deep,|And|
w: dark and rude, And|bid their an- gry|tu- mult cease,|And|
w: dan- ger's hour From|rock and tem- pest,|fire and foe,|Guard|
 G2 ^F2 E2 A2 | [EG]2 [^D^F]2 !fermata!E2 [B,E]2 | [_B,E]3 [B,E] [A,F]2 [CF]2 | %11
w: own ap- point- ed|lim- its keep: O|hear us when we|
w: calm a- mid the|storm didst keep: O|hear us when we|
w: give, for wild con-|fu- sion, peace: O|hear us when we|
w: them wher- ev- er|they may go: Thus|ev- er- more shall|
 [C^F]3 [CF] [B,G]2 G2 | [EG]2 [DA]2 [EG]2 [CE]2 | [B,D]3 C"^Repeat 3x" !fermata!C2 z2 :| %14
w: cry to Thee For|those in per- il|on the sea.|
w: cry to Thee For|those in per- il|on the sea.|
w: cry to Thee For|those in per- il|on the sea.|
w: rise to Thee Glad|hymns of praise from|land and sea.|
V:2
 z2 | x4 C3 B, | [F,A,][G,B,] [A,C][B,D] [CE]2 [B,D]2 | [A,C]2 [D,A,]2 [G,B,]2 [B,,D][C,C] | %4
 x6 G,2 | [B,,G,]3 [B,,G,] [C,G,]2 [C,G,]2 | [^C,A,]3 [C,A,] [D,A,]2 | [^D,B,]2 | %8
 [E,B,]2 [^F,A,]2 [G,B,]2 [A,C]2 | B,2 B,2 !fermata![E,G,]2 [E,G,]2 | x4 F,2 [F,A,]2 | %11
 x4 G,2 [B,,D]2 | [C,C]2 [^F,,C]2 [G,,C]2 [G,,G,]2 | [G,,=F,]3 [C,E,] !fermata![C,E,]2 z2 :| %14
V:3
 x2 | [C,G,]3 [C,G,] C,2 C,2 | x8 | x8 | [D,A,]2 [D,A,]2 !fermata![G,B,]2 x2 | x8 | x6 | x2 | x8 | %9
 x8 | [C,G,]3 [C,G,] x4 | [D,A,]3 [D,A,] G,2 x2 | x8 | x8 :| %14
V:4
 x2 | x8 | x6 G2 | G3 ^F G3 E | x8 | x8 | x6 | x2 | E3 ^D E3 ^F | x8 | x8 | x6 =F2 | x8 | x8 :| %14

